svg/u1f624.svg

<svg viewBox="0 0 128 128" xmlns="http://www.w3.org/2000/svg">
  <g id="facial_expressions">
    <radialGradient id="face_1_" cx="63.6" cy="2584.8999" gradientTransform="matrix(1 0 0 1 0 -2522)" gradientUnits="userSpaceOnUse" r="56.9597">
      <stop offset="0.5" stop-color="#FDE030"/>
      <stop offset="0.92" stop-color="#F7C02B"/>
      <stop offset="1" stop-color="#F4A223"/>
    </radialGradient>
    <path id="face" d="M63.6,118.8c-27.9,0-58-17.5-58-55.9S35.7,7,63.6,7c15.5,0,29.8,5.1,40.4,14.4 c11.5,10.2,17.6,24.6,17.6,41.5s-6.1,31.2-17.6,41.4C93.4,113.6,79,118.8,63.6,118.8z" fill="url(#face_1_)"/>
    <path d="M111.49,29.67c5.33,8.6,8.11,18.84,8.11,30.23c0,16.9-6.1,31.2-17.6,41.4 c-10.6,9.3-25,14.5-40.4,14.5c-18.06,0-37-7.35-48.18-22.94c10.76,17.66,31,25.94,50.18,25.94c15.4,0,29.8-5.2,40.4-14.5 c11.5-10.2,17.6-24.5,17.6-41.4C121.6,50.16,118.13,38.84,111.49,29.67z" fill="#EB8F00"/>
    <path id="mouth" d="M83.9,90.7c-0.39-0.01-0.76-0.11-1.1-0.3c-5.73-3.24-12.22-4.9-18.8-4.8 c-6.58-0.05-13.05,1.6-18.8,4.8c-0.3,0.19-0.65,0.29-1,0.3c-0.8-0.03-1.53-0.49-1.9-1.2c-0.31-0.73-0.19-1.58,0.3-2.2 c10.36-11.82,28.34-13,40.16-2.64c0.94,0.82,1.82,1.7,2.64,2.64c0.74,0.88,0.62,2.18-0.25,2.92C84.8,90.51,84.36,90.68,83.9,90.7 L83.9,90.7z" fill="#35220B"/>
    <g id="peepers">
      <path d="M73.9,50.1c0.08,0.01,0.15,0.04,0.2,0.1c0.11,0.01,0.19,0.09,0.2,0.2c0.1,0,0.1,0,0.2,0.1 c0.23,0.12,0.46,0.22,0.7,0.3l0.9,0.3c0.82,0.27,1.65,0.47,2.5,0.6c0.5,0.1,1,0.1,1.5,0.2c0.53,0.08,1.06,0.12,1.6,0.1h1.6 c0.51-0.02,1.01-0.08,1.5-0.2c1-0.2,1.8-0.4,2.5-0.6s1.2-0.5,1.6-0.6c0.22-0.05,0.43-0.15,0.6-0.3l0.5-0.2 c1.44-0.75,3.21-0.21,4,1.2c0.57,1.06,0.45,2.36-0.3,3.3c-0.08,0.09-0.15,0.19-0.2,0.3c-0.17,0.26-0.37,0.5-0.6,0.7 c-0.76,0.76-1.6,1.43-2.5,2c-1.24,0.53-2.51,1-3.8,1.4c-0.76,0.21-1.52,0.38-2.3,0.5c-0.4,0-0.8,0.1-1.3,0.1h-1.2 c-0.8-0.02-1.6-0.08-2.4-0.2c-0.78-0.11-1.55-0.28-2.3-0.5c-1.38-0.36-2.69-0.94-3.9-1.7c-0.6-0.3-1-0.7-1.5-1 c-0.39-0.31-0.76-0.64-1.1-1l-0.4-0.4c-0.1-0.1-0.1-0.2-0.2-0.2l-0.2-0.2c-0.99-1.33-0.73-3.21,0.6-4.2l0,0 C71.46,49.52,72.81,49.48,73.9,50.1z" fill="#35220B"/>
      <path d="M37.1,50.1c0.08,0.01,0.15,0.04,0.2,0.1c0.11,0.01,0.19,0.09,0.2,0.2c0.1,0,0.1,0,0.2,0.1 c0.23,0.12,0.46,0.22,0.7,0.3l0.9,0.3c0.82,0.27,1.65,0.47,2.5,0.6c0.5,0.1,1,0.1,1.5,0.2c0.53,0.09,1.06,0.12,1.6,0.1h1.6 c0.51-0.02,1.01-0.08,1.5-0.2c1-0.2,1.8-0.4,2.5-0.6s1.2-0.5,1.6-0.6c0.22-0.05,0.43-0.15,0.6-0.3l0.5-0.2 c1.44-0.75,3.21-0.21,4,1.2c0.57,1.06,0.45,2.36-0.3,3.3c-0.08,0.09-0.15,0.19-0.2,0.3c-0.17,0.26-0.37,0.5-0.6,0.7 c-0.74,0.78-1.58,1.45-2.5,2c-1.24,0.76-2.59,1.34-4,1.7c-0.76,0.21-1.52,0.38-2.3,0.5c-0.4,0-0.8,0.1-1.3,0.1h-1.2 c-0.8-0.02-1.6-0.08-2.4-0.2c-0.78-0.11-1.55-0.28-2.3-0.5c-1.4-0.38-2.75-0.95-4-1.7c-0.5-0.3-1-0.7-1.5-1 c-0.39-0.31-0.76-0.64-1.1-1l-0.4-0.4C33,55,33,54.9,32.9,54.9l-0.2-0.2c-0.99-1.33-0.73-3.21,0.6-4.2l0,0 C34.36,49.6,35.87,49.44,37.1,50.1z" fill="#35220B"/>
    </g>
    <g id="eyebrows">
      <path d="M75.52,37.89l-0.1,0.12c-1.46,2-4.78,0.52-3.63-2c0.97-2.01,2.24-3.86,3.76-5.49 c4.07-4.42,9.68-7.11,15.67-7.52c1.14-0.1,2.15,0.76,2.25,1.9c0.09,1.09-0.68,2.07-1.77,2.23C85.25,28.79,79.54,32.58,75.52,37.89 z" fill="#422B0D"/>
      <path d="M54.42,38.89l0.09,0.12c1.47,2,4.79,0.52,3.64-2c-0.97-2.01-2.25-3.86-3.77-5.49 c-4.07-4.42-9.67-7.11-15.66-7.52c-1.14-0.11-2.16,0.73-2.27,1.87c-0.11,1.11,0.68,2.1,1.78,2.26 C44.69,29.79,50.39,33.58,54.42,38.89z" fill="#422B0D"/>
    </g>
    <path d="M5.77,92c0.8-0.96,0.92-2.31,0.3-3.4C4.71,86.28,4.32,83.51,5,80.9c1.07-4.45,4.93-7.66,9.5-7.9h0.6 c1.71,0.01,3.39,0.44,4.9,1.25c1.6,0.92,3.02,2.15,4.16,3.6c3.52-1.46,18.5-7,22.37-8.43h0.06L36.33,91.17l0,0 c4.64,3.43,5.62,9.98,2.19,14.62c-1.83,2.48-4.67,4.02-7.75,4.21h-0.61c-2.44,0.02-4.81-0.83-6.69-2.4c-0.56-0.46-1.27-0.71-2-0.7 c-0.6,0.01-1.19,0.18-1.7,0.5c-1.75,1.16-3.81,1.79-5.91,1.8c-0.81,0-1.61-0.1-2.39-0.3c-4.51-1.02-7.8-4.89-8.11-9.5 C3.16,96.71,4.03,94.05,5.77,92z" fill="#FFFFFF"/>
    <polygon fill="#92CBEB" points="46.56,69.4 31.18,89.69 36.33,91.17 "/>
    <path d="M31.65,89.34c-0.38,0.02-0.67,0.33-0.65,0.71c0.01,0.25,0.16,0.47,0.38,0.58 c2.06,0.9,3.55,2.74,4,4.94c0.42,2.32-0.2,5.32-2,7s-4.78,2-7.07,1.4s-5-3-6.77-4.79c-0.3-0.31-0.8-0.32-1.12-0.02 c-0.13,0.12-0.21,0.28-0.23,0.46c-0.1,0.96-0.02,1.93,0.26,2.85c0.14,0.91-4.51,4.41-9.78,1.59C1.18,100,7.11,91.5,6.26,91.17l0,0 c-0.12,0.3-0.28,0.58-0.49,0.83c-1.74,2.05-2.61,4.71-2.41,7.4c0.31,4.61,3.6,8.48,8.11,9.5c0.78,0.2,1.58,0.3,2.39,0.3 c2.1-0.01,4.16-0.64,5.91-1.8c0.51-0.32,1.1-0.49,1.7-0.5c0.73-0.01,1.44,0.24,2,0.7c1.88,1.57,4.25,2.42,6.69,2.4h0.61 c5.76-0.36,10.14-5.32,9.77-11.08c-0.19-3.08-1.74-5.91-4.21-7.75l0,0l0.61-1.31C35.22,89.36,33.43,89.19,31.65,89.34z" fill="#92CBEB"/>
    <path d="M5,80.9c-0.67,2.61-0.27,5.38,1.1,7.7c0.42,0.79,0.49,1.72,0.19,2.56l0,0 c1.26-0.94,2.11-2.33,2.39-3.88c0.1-1.69-0.09-3.38-0.58-5c-0.45-1.37-0.37-2.85,0.23-4.16c1.09-2.61,4.35-4.13,4.63-4.24 c0.68-0.28,0.82-0.59,0.79-0.8C9.49,73.61,6,76.73,5,80.9z" fill="#92CBEB"/>
    <path d="M122.23,92c-0.8-0.96-0.92-2.31-0.3-3.4c1.37-2.32,1.77-5.09,1.1-7.7c-1.07-4.45-4.93-7.66-9.5-7.9 h-0.6c-1.72,0-3.42,0.43-4.93,1.25c-1.6,0.92-3.02,2.15-4.16,3.6c-3.52-1.46-18.5-7-22.37-8.43h-0.06l10.26,21.75l0,0 c-4.64,3.43-5.62,9.98-2.19,14.62c1.83,2.48,4.67,4.02,7.75,4.21h0.61c2.44,0.02,4.81-0.83,6.69-2.4c0.56-0.46,1.27-0.71,2-0.7 c0.6,0.01,1.19,0.18,1.7,0.5c1.75,1.16,3.81,1.79,5.91,1.8c0.81,0,1.61-0.1,2.39-0.3c4.51-1.02,7.8-4.89,8.11-9.5 C124.84,96.71,123.97,94.05,122.23,92z" fill="#FFFFFF"/>
    <polygon fill="#92CBEB" points="81.44,69.4 96.81,89.69 91.67,91.17 "/>
    <path d="M96.35,89.34c0.38,0.02,0.67,0.33,0.65,0.71c-0.01,0.25-0.16,0.47-0.38,0.58 c-2.06,0.9-3.55,2.74-4,4.94c-0.42,2.32,0.2,5.32,2,7s4.78,2,7.07,1.4s5-3,6.77-4.79c0.3-0.31,0.8-0.32,1.12-0.02 c0.13,0.12,0.21,0.28,0.23,0.46c0.1,0.96,0.02,1.93-0.26,2.85c-0.14,0.91,4.51,4.41,9.78,1.59c7.51-4,1.58-12.51,2.43-12.84l0,0 c0.12,0.3,0.28,0.58,0.49,0.83c1.74,2.05,2.61,4.71,2.41,7.4c-0.31,4.61-3.6,8.48-8.11,9.5c-0.78,0.2-1.58,0.3-2.39,0.3 c-2.1-0.01-4.16-0.64-5.91-1.8c-0.51-0.32-1.1-0.49-1.7-0.5c-0.73-0.01-1.44,0.24-2,0.7c-1.88,1.57-4.25,2.42-6.69,2.4h-0.61 c-5.76-0.36-10.14-5.32-9.77-11.08c0.19-3.08,1.74-5.91,4.21-7.75l0,0l-0.61-1.31C92.79,89.4,94.57,89.21,96.35,89.34z" fill="#92CBEB"/>
    <path d="M123,80.9c0.67,2.61,0.27,5.38-1.1,7.7c-0.42,0.79-0.49,1.72-0.19,2.56l0,0 c-1.26-0.94-2.11-2.33-2.39-3.88c-0.1-1.69,0.09-3.38,0.58-5c0.45-1.37,0.37-2.85-0.23-4.16c-1.09-2.61-4.35-4.13-4.63-4.24 c-0.68-0.28-0.82-0.59-0.79-0.8C118.51,73.61,122,76.73,123,80.9z" fill="#92CBEB"/>
  </g>
</svg>

<svg viewBox="0 0 128 128" xmlns="http://www.w3.org/2000/svg">
  <defs>
    <radialGradient id="face_1_" cx="63.6" cy="62.8999" gradientUnits="userSpaceOnUse" r="56.9597">
      <stop offset="0.5" stop-color="#FDE030"/>
      <stop offset="0.92" stop-color="#F7C02B"/>
      <stop offset="1" stop-color="#F4A223"/>
    </radialGradient>
  </defs>
  <path id="face" d="M63.6,118.8 C35.7,118.8 5.6,101.3 5.6,62.9 C5.6,24.5 35.7,7 63.6,7 C79.1,7 93.4,12.1 104,21.4 C115.5,31.6 121.6,46 121.6,62.9 C121.6,79.8 115.5,94.1 104,104.3 C93.4,113.6 79,118.8 63.6,118.8 Z" fill="url(#face_1_)"/>
  <path d="M111.49,29.67 C116.82,38.27 119.6,48.51 119.6,59.9 C119.6,76.8 113.5,91.1 102,101.3 C91.4,110.6 77,115.8 61.6,115.8 C43.54,115.8 24.6,108.45 13.42,92.86 C24.18,110.52 44.42,118.8 63.6,118.8 C79,118.8 93.4,113.6 104,104.3 C115.5,94.1 121.6,79.8 121.6,62.9 C121.6,50.16 118.13,38.84 111.49,29.67 Z" fill="#EB8F00"/>
  <path id="mouth" d="M83.9,90.7 C83.51,90.69 83.14,90.59 82.8,90.4 C77.07,87.16 70.58,85.5 64,85.6 C57.42,85.55 50.95,87.2 45.2,90.4 C44.9,90.59 44.55,90.69 44.2,90.7 C43.4,90.67 42.67,90.21 42.3,89.5 C41.99,88.77 42.11,87.92 42.6,87.3 C52.96,75.48 70.94,74.3 82.76,84.66 C83.7,85.48 84.58,86.36 85.4,87.3 C86.14,88.18 86.02,89.48 85.15,90.22 C84.8,90.51 84.36,90.68 83.9,90.7 L83.9,90.7 Z" fill="#35220B"/>
  <path d="M73.9,50.1 C73.98,50.11 74.05,50.14 74.1,50.2 C74.21,50.21 74.29,50.29 74.3,50.4 C74.4,50.4 74.4,50.4 74.5,50.5 C74.73,50.62 74.96,50.72 75.2,50.8 L76.1,51.1 C76.92,51.37 77.75,51.57 78.6,51.7 C79.1,51.8 79.6,51.8 80.1,51.9 C80.63,51.98 81.16,52.02 81.7,52 L83.3,52 C83.81,51.98 84.31,51.92 84.8,51.8 C85.8,51.6 86.6,51.4 87.3,51.2 C88,51 88.5,50.7 88.9,50.6 C89.12,50.55 89.33,50.45 89.5,50.3 L90,50.1 C91.44,49.35 93.21,49.89 94,51.3 C94.57,52.36 94.45,53.66 93.7,54.6 C93.62,54.69 93.55,54.79 93.5,54.9 C93.33,55.16 93.13,55.4 92.9,55.6 C92.14,56.36 91.3,57.03 90.4,57.6 C89.16,58.13 87.89,58.6 86.6,59 C85.84,59.21 85.08,59.38 84.3,59.5 C83.9,59.5 83.5,59.6 83,59.6 L81.8,59.6 C81,59.58 80.2,59.52 79.4,59.4 C78.62,59.29 77.85,59.12 77.1,58.9 C75.72,58.54 74.41,57.96 73.2,57.2 C72.6,56.9 72.2,56.5 71.7,56.2 C71.31,55.89 70.94,55.56 70.6,55.2 L70.2,54.8 C70.1,54.7 70.1,54.6 70,54.6 L69.8,54.4 C68.81,53.07 69.07,51.19 70.4,50.2 L70.4,50.2 C71.46,49.52 72.81,49.48 73.9,50.1 Z" fill="#35220B"/>
  <path d="M37.1,50.1 C37.18,50.11 37.25,50.14 37.3,50.2 C37.41,50.21 37.49,50.29 37.5,50.4 C37.6,50.4 37.6,50.4 37.7,50.5 C37.93,50.62 38.16,50.72 38.4,50.8 L39.3,51.1 C40.12,51.37 40.95,51.57 41.8,51.7 C42.3,51.8 42.8,51.8 43.3,51.9 C43.83,51.99 44.36,52.02 44.9,52 L46.5,52 C47.01,51.98 47.51,51.92 48,51.8 C49,51.6 49.8,51.4 50.5,51.2 C51.2,51 51.7,50.7 52.1,50.6 C52.32,50.55 52.53,50.45 52.7,50.3 L53.2,50.1 C54.64,49.35 56.41,49.89 57.2,51.3 C57.77,52.36 57.65,53.66 56.9,54.6 C56.82,54.69 56.75,54.79 56.7,54.9 C56.53,55.16 56.33,55.4 56.1,55.6 C55.36,56.38 54.52,57.05 53.6,57.6 C52.36,58.36 51.01,58.94 49.6,59.3 C48.84,59.51 48.08,59.68 47.3,59.8 C46.9,59.8 46.5,59.9 46,59.9 L44.8,59.9 C44,59.88 43.2,59.82 42.4,59.7 C41.62,59.59 40.85,59.42 40.1,59.2 C38.7,58.82 37.35,58.25 36.1,57.5 C35.6,57.2 35.1,56.8 34.6,56.5 C34.21,56.19 33.84,55.86 33.5,55.5 L33.1,55.1 C33,55 33,54.9 32.9,54.9 L32.7,54.7 C31.71,53.37 31.97,51.49 33.3,50.5 L33.3,50.5 C34.36,49.6 35.87,49.44 37.1,50.1 Z" fill="#35220B"/>
  <path d="M75.52,37.89 L75.42,38.01 C73.96,40.01 70.64,38.53 71.79,36.01 C72.76,34 74.03,32.15 75.55,30.52 C79.62,26.1 85.23,23.41 91.22,23 C92.36,22.9 93.37,23.76 93.47,24.9 C93.56,25.99 92.79,26.97 91.7,27.13 C85.25,28.79 79.54,32.58 75.52,37.89 Z" fill="#422B0D"/>
  <path d="M54.42,38.89 L54.51,39.01 C55.98,41.01 59.3,39.53 58.15,37.01 C57.18,35 55.9,33.15 54.38,31.52 C50.31,27.1 44.71,24.41 38.72,24 C37.58,23.89 36.56,24.73 36.45,25.87 C36.34,26.98 37.13,27.97 38.23,28.13 C44.69,29.79 50.39,33.58 54.42,38.89 Z" fill="#422B0D"/>
  <path d="M5.77,92 C6.57,91.04 6.69,89.69 6.07,88.6 C4.71,86.28 4.32,83.51 5,80.9 C6.07,76.45 9.93,73.24 14.5,73 L15.1,73 C16.81,73.01 18.49,73.44 20,74.25 C21.6,75.17 23.02,76.4 24.16,77.85 C27.68,76.39 42.66,70.85 46.53,69.42 L46.59,69.42 L36.33,91.17 L36.33,91.17 C40.97,94.6 41.95,101.15 38.52,105.79 C36.69,108.27 33.85,109.81 30.77,110 L30.16,110 C27.72,110.02 25.35,109.17 23.47,107.6 C22.91,107.14 22.2,106.89 21.47,106.9 C20.87,106.91 20.28,107.08 19.77,107.4 C18.02,108.56 15.96,109.19 13.86,109.2 C13.05,109.2 12.25,109.1 11.47,108.9 C6.96,107.88 3.67,104.01 3.36,99.4 C3.16,96.71 4.03,94.05 5.77,92 Z" fill="#FFFFFF"/>
  <path d="M46.56,69.4 L31.18,89.69 L36.33,91.17 Z" fill="#92CBEB"/>
  <path d="M31.65,89.34 C31.27,89.36 30.98,89.67 31,90.05 C31.01,90.3 31.16,90.52 31.38,90.63 C33.44,91.53 34.93,93.37 35.38,95.57 C35.8,97.89 35.18,100.89 33.38,102.57 C31.58,104.25 28.6,104.57 26.31,103.97 C24.02,103.37 21.31,100.97 19.54,99.18 C19.24,98.87 18.74,98.86 18.42,99.16 C18.29,99.28 18.21,99.44 18.19,99.62 C18.09,100.58 18.17,101.55 18.45,102.47 C18.59,103.38 13.94,106.88 8.67,104.06 C1.18,100 7.11,91.5 6.26,91.17 L6.26,91.17 C6.14,91.47 5.98,91.75 5.77,92 C4.03,94.05 3.16,96.71 3.36,99.4 C3.67,104.01 6.96,107.88 11.47,108.9 C12.25,109.1 13.05,109.2 13.86,109.2 C15.96,109.19 18.02,108.56 19.77,107.4 C20.28,107.08 20.87,106.91 21.47,106.9 C22.2,106.89 22.91,107.14 23.47,107.6 C25.35,109.17 27.72,110.02 30.16,110 L30.77,110 C36.53,109.64 40.91,104.68 40.54,98.92 C40.35,95.84 38.8,93.01 36.33,91.17 L36.33,91.17 L36.94,89.86 C35.22,89.36 33.43,89.19 31.65,89.34 Z" fill="#92CBEB"/>
  <path d="M5,80.9 C4.33,83.51 4.73,86.28 6.1,88.6 C6.52,89.39 6.59,90.32 6.29,91.16 L6.29,91.16 C7.55,90.22 8.4,88.83 8.68,87.28 C8.78,85.59 8.59,83.9 8.1,82.28 C7.65,80.91 7.73,79.43 8.33,78.12 C9.42,75.51 12.68,73.99 12.96,73.88 C13.64,73.6 13.78,73.29 13.75,73.08 C9.49,73.61 6,76.73 5,80.9 Z" fill="#92CBEB"/>
  <path d="M122.23,92 C121.43,91.04 121.31,89.69 121.93,88.6 C123.3,86.28 123.7,83.51 123.03,80.9 C121.96,76.45 118.1,73.24 113.53,73 L112.93,73 C111.21,73 109.51,73.43 108,74.25 C106.4,75.17 104.98,76.4 103.84,77.85 C100.32,76.39 85.34,70.85 81.47,69.42 L81.41,69.42 L91.67,91.17 L91.67,91.17 C87.03,94.6 86.05,101.15 89.48,105.79 C91.31,108.27 94.15,109.81 97.23,110 L97.84,110 C100.28,110.02 102.65,109.17 104.53,107.6 C105.09,107.14 105.8,106.89 106.53,106.9 C107.13,106.91 107.72,107.08 108.23,107.4 C109.98,108.56 112.04,109.19 114.14,109.2 C114.95,109.2 115.75,109.1 116.53,108.9 C121.04,107.88 124.33,104.01 124.64,99.4 C124.84,96.71 123.97,94.05 122.23,92 Z" fill="#FFFFFF"/>
  <path d="M81.44,69.4 L96.81,89.69 L91.67,91.17 Z" fill="#92CBEB"/>
  <path d="M96.35,89.34 C96.73,89.36 97.02,89.67 97,90.05 C96.99,90.3 96.84,90.52 96.62,90.63 C94.56,91.53 93.07,93.37 92.62,95.57 C92.2,97.89 92.82,100.89 94.62,102.57 C96.42,104.25 99.4,104.57 101.69,103.97 C103.98,103.37 106.69,100.97 108.46,99.18 C108.76,98.87 109.26,98.86 109.58,99.16 C109.71,99.28 109.79,99.44 109.81,99.62 C109.91,100.58 109.83,101.55 109.55,102.47 C109.41,103.38 114.06,106.88 119.33,104.06 C126.84,100.06 120.91,91.55 121.76,91.22 L121.76,91.22 C121.88,91.52 122.04,91.8 122.25,92.05 C123.99,94.1 124.86,96.76 124.66,99.45 C124.35,104.06 121.06,107.93 116.55,108.95 C115.77,109.15 114.97,109.25 114.16,109.25 C112.06,109.24 110,108.61 108.25,107.45 C107.74,107.13 107.15,106.96 106.55,106.95 C105.82,106.94 105.11,107.19 104.55,107.65 C102.67,109.22 100.3,110.07 97.86,110.05 L97.25,110.05 C91.49,109.69 87.11,104.73 87.48,98.97 C87.67,95.89 89.22,93.06 91.69,91.22 L91.69,91.22 L91.08,89.91 C92.79,89.4 94.57,89.21 96.35,89.34 Z" fill="#92CBEB"/>
  <path d="M123,80.9 C123.67,83.51 123.27,86.28 121.9,88.6 C121.48,89.39 121.41,90.32 121.71,91.16 L121.71,91.16 C120.45,90.22 119.6,88.83 119.32,87.28 C119.22,85.59 119.41,83.9 119.9,82.28 C120.35,80.91 120.27,79.43 119.67,78.12 C118.58,75.51 115.32,73.99 115.04,73.88 C114.36,73.6 114.22,73.29 114.25,73.08 C118.51,73.61 122,76.73 123,80.9 Z" fill="#92CBEB"/>
</svg>
